X:1
T:Title
%%score 1 { 2 | 3 }
L:1/8
Q:1/4=80
M:2/4
K:Db
V:1 treble nm="Grand Piano, Soprano"
V:2 treble nm="Choir Pad, Oh, the Joy That Awaits Me"
V:3 bass 
V:1
 [FA][FA]- [FA]/[FA]/[DF]- | [DF]/[EG]/[GB] .[FA]2 | [FA]/[FA]/[EA]- [EA]/[EG]/[CE]- | %3
w: By~E.~F.~Miller * * * *|||
 [CE]/[EG]/ [DF]3 | [FA]/[FA]/[GB]- [GB]/[Bd]/[Ac]- | [Ac]/[GB]/[GB] .[FA]2 | %6
w: |||
 [DF]/[DF]/[CE]- [CE]/[CA]/[Ec]- | [Ec]/[DB]/ [CA]3 | [GA][Fd]- [Fd]/[DF]/[CG]- | %9
w: |||
 [CG]/[DA]/[GB] .[GB]2 | [GB][=Ge]- [Ge]/[GB]/[Gc]- | [Gc]/[=Gd]/ [Ac]3 | %12
w: |||
 [GA][Fd]- [Fd]/[FA]/[DF]- | [DF]/[FA]/[G_c] .[GB]2 | [GB][FA]- [FA]/[CE]/[CB] | [CA] .D3 | %16
w: ||||
 [FA]/[FA]/[Fd]- [Fd]/[FA]/[DF]- | [DF]/[EG]/[GB] [FA]2 | [FA]/[FA]/[EA]- [EA]/[EG]/[CE]- | %19
w: |||
 [CE]/[EG]/ [DF]3 | [FA]/[FA]/[GB]- [GB]/[DG]/[Dd]- | [Dd]/[GB]/[FA] [DF]2 | %22
w: |||
 [Fd][Ec]- [Ec]/[GA]/[GB]- | [GB]/[Gc]/ [Fd]3- | [Fd]4 |] %25
w: |||
V:2
 DD- D/D/A,- | A,/A,/D .D2 | D/D/C- C/[K:bass]A,/A,- | A,/A,/ A,3 | D/D/D- D/D/D- | D/D/D .D2 | %6
 A,/A,/A,- A,/A,/A,- | A,/=G,/ A,3 | A,A,- A,/A,/A,- | A,/A,/[K:treble]D .D2 | %10
 DD- D/[K:bass]B,/B,- | B,/B,/ A,3 | A,A,- A,/A,/A,- | A,/[K:treble]D/D .D2 | %14
 DA,- A,/[K:bass]A,/A, | G, .F,3 | D/D/A,- A,/D/A,- | A,/A,/[K:treble]D D2 | %18
 D/D/C- C/[K:bass]A,/A,- | A,/A,/ A,3 | D/D/D- D/B,/[K:bass]B,- | B,/D/D A,2 | A,A,- A,/A,/A,- | %23
 A,/A,/ A,3- | A,4 |] %25
V:3
 D,D,- D,/D,/D,- | D,/D,/D, .D,2 | D,/D,/A,,- A,,/A,,/A,,- | A,,/A,,/ D,3 | D,/D,/G,- G,/G,/G,- | %5
 G,/G,/D, .D,2 | D,/D,/E,- E,/E,/E,- | E,/E,/ A,,3 | A,,D,- D,/D,/D,- | D,/F,/G, .G,2 | %10
 G,E,- E,/E,/E,- | E,<.E, z2 | z D,- D,/D,/D,- | D,/D,/G, .G,2 | .D,2 z/ A,,/A,, | A,, .D,3 | %16
 D,/D,/D,- D,/D,/D,- | D,/D,/D, D,2 | D,/D,/ A,2 A,,- | A,,/A,,/ D,3 | D,/D,/G,- G,/G,/G,- | %21
 G,/G,/D, D,2 | .D,2 z A,,- | A,,/A,,/ D,3- | D,4 |] %25

